X: 112
T: Cackny
T: New Camargo
P: Longways for &c.
%R: strathspey, hornpipe
B: "Caledonian Country Dances" printed by John Walsh for John Johnson, London
S: 1: CCDTB http://imslp.org/wiki/Caledonian_Country_Dances_with_a_Thorough_Bass_(Various) p.99
Z: 2013 John Chambers <jc:trillian.mit.edu>
N: Repeats added to satisfy the "Each Strain twice" instruction.
M: C|
L: 1/8
K: G
V: 1
|: G>BB>A G>gf>e | d>ed>c TB2A2 | G>BB>A G>ga>f | e>de>f d2C2 :|
|: d>gg>d c>gg>c | B>gg>B TB2A2 | G>AB>d d>gg>c | B2TA2 G4 :|
V: 2 clef=bass middle=d
|: G2dc Acdc | Bc BA FBdc | BG dc B2^cd | a2A2 d4 :|
|: A4 c4 | g2c2 dd'c'c | B2G2 B2c2 | cAdD G4 :|
%%center Each Strain twice.
%%begintext align
%% The 1st Cu. set turn and cast off & then cast up again; the 2d Cu do the same .|
%% then cross over & half figure & lead thro the 3d Cu & cast up :|
%% then cast up the 1st Cu Back to Back & turn .|
%% then the 1st Cu. cast up the 2d Cu & Right & left :|
%%endtext

%%sep 1 1 500
%%sep 1 1 500
